X:117
T:York. JMP.117
M:2/2
L:1/2
S:John Miller MS. Perth, 1799.(for the fife)
R:.sacred
O:Scotland
A:Perth
N:Photocopy very dark and large ink blot over last ba
H:1799
Z:vmp.C. Graebe
K:A minor
â€œIllegible at beginingâ€\
z2 | zz | cd | Be | A2 ||\
A2 | Bd | dc| d2 |\
G2 | Bd | ce | cd | A2 |\
B2 | cB | â€œlarge ink blot hereâ€zz | zz | z2 |]
